X: 40202
T: Tinker's Apron, The
R: reel
M: 4/4
K: Dmajor
ed|:cAAB cAAB|cAAG (3eee ed|cAAB (3ccc cA|BGGB (3ddd ed|
cAAB cAAB|cAAG (3eee ed|cAAB (3ccc cA|BGGB (3ddd ed:|
|:cdef gfed|cdef eABA|(3Bcd ef gfge|dBgB (3ddd ed|
cdef gfed|cdef eABA|(3Bcd ef (3ggg ge|dBgB (3ddd ed:|

